icons/svg/accommodation/bed_and_breakfast2.svg

<?xml version="1.0" encoding="UTF-8" standalone="no"?>
<!-- Created with Inkscape (http://www.inkscape.org/) -->

<svg
   xmlns:dc="http://purl.org/dc/elements/1.1/"
   xmlns:cc="http://creativecommons.org/ns#"
   xmlns:rdf="http://www.w3.org/1999/02/22-rdf-syntax-ns#"
   xmlns:svg="http://www.w3.org/2000/svg"
   xmlns="http://www.w3.org/2000/svg"
   xmlns:sodipodi="http://sodipodi.sourceforge.net/DTD/sodipodi-0.dtd"
   xmlns:inkscape="http://www.inkscape.org/namespaces/inkscape"
   version="1.0"
   width="580"
   height="580"
   id="svg2"
   sodipodi:version="0.32"
   inkscape:version="0.47 r22583"
   sodipodi:docname="accommodation_bed_and_breakfast2.svg"
   inkscape:output_extension="org.inkscape.output.svg.inkscape">
  <metadata
     id="metadata2975">
    <rdf:RDF>
      <cc:Work
         rdf:about="">
        <dc:format>image/svg+xml</dc:format>
        <dc:type
           rdf:resource="http://purl.org/dc/dcmitype/StillImage" />
        <dc:title></dc:title>
      </cc:Work>
    </rdf:RDF>
  </metadata>
  <sodipodi:namedview
     inkscape:window-height="973"
     inkscape:window-width="1280"
     inkscape:pageshadow="2"
     inkscape:pageopacity="0.0"
     guidetolerance="10.0"
     gridtolerance="10.0"
     objecttolerance="10.0"
     borderopacity="1.0"
     bordercolor="#666666"
     pagecolor="#ffffff"
     id="base"
     inkscape:zoom="0.92167712"
     inkscape:cx="363.87523"
     inkscape:cy="344.7537"
     inkscape:window-x="0"
     inkscape:window-y="0"
     inkscape:current-layer="svg2"
     showgrid="false"
     inkscape:window-maximized="1" />
  <defs
     id="defs4">
    <inkscape:perspective
       sodipodi:type="inkscape:persp3d"
       inkscape:vp_x="0 : 290 : 1"
       inkscape:vp_y="0 : 1000 : 0"
       inkscape:vp_z="580 : 290 : 1"
       inkscape:persp3d-origin="290 : 193.33333 : 1"
       id="perspective2441" />
    <inkscape:perspective
       id="perspective2466"
       inkscape:persp3d-origin="372.04724 : 350.78739 : 1"
       inkscape:vp_z="744.09448 : 526.18109 : 1"
       inkscape:vp_y="0 : 1000 : 0"
       inkscape:vp_x="0 : 526.18109 : 1"
       sodipodi:type="inkscape:persp3d" />
    <inkscape:perspective
       id="perspective3333"
       inkscape:persp3d-origin="372.04724 : 350.78739 : 1"
       inkscape:vp_z="744.09448 : 526.18109 : 1"
       inkscape:vp_y="0 : 1000 : 0"
       inkscape:vp_x="0 : 526.18109 : 1"
       sodipodi:type="inkscape:persp3d" />
    <inkscape:perspective
       id="perspective3401"
       inkscape:persp3d-origin="372.04724 : 350.78739 : 1"
       inkscape:vp_z="744.09448 : 526.18109 : 1"
       inkscape:vp_y="0 : 1000 : 0"
       inkscape:vp_x="0 : 526.18109 : 1"
       sodipodi:type="inkscape:persp3d" />
    <inkscape:perspective
       id="perspective3464"
       inkscape:persp3d-origin="372.04724 : 350.78739 : 1"
       inkscape:vp_z="744.09448 : 526.18109 : 1"
       inkscape:vp_y="0 : 1000 : 0"
       inkscape:vp_x="0 : 526.18109 : 1"
       sodipodi:type="inkscape:persp3d" />
    <inkscape:perspective
       id="perspective3581"
       inkscape:persp3d-origin="225 : 150 : 1"
       inkscape:vp_z="450 : 225 : 1"
       inkscape:vp_y="0 : 1000 : 0"
       inkscape:vp_x="0 : 225 : 1"
       sodipodi:type="inkscape:persp3d" />
    <inkscape:perspective
       id="perspective4312"
       inkscape:persp3d-origin="225 : 150 : 1"
       inkscape:vp_z="450 : 225 : 1"
       inkscape:vp_y="0 : 1000 : 0"
       inkscape:vp_x="0 : 225 : 1"
       sodipodi:type="inkscape:persp3d" />
    <inkscape:perspective
       id="perspective8860"
       inkscape:persp3d-origin="372.04724 : 350.78739 : 1"
       inkscape:vp_z="744.09448 : 526.18109 : 1"
       inkscape:vp_y="0 : 1000 : 0"
       inkscape:vp_x="0 : 526.18109 : 1"
       sodipodi:type="inkscape:persp3d" />
    <inkscape:perspective
       id="perspective8887"
       inkscape:persp3d-origin="372.04724 : 350.78739 : 1"
       inkscape:vp_z="744.09448 : 526.18109 : 1"
       inkscape:vp_y="0 : 1000 : 0"
       inkscape:vp_x="0 : 526.18109 : 1"
       sodipodi:type="inkscape:persp3d" />
    <inkscape:perspective
       sodipodi:type="inkscape:persp3d"
       inkscape:vp_x="0 : 16 : 1"
       inkscape:vp_y="0 : 1000 : 0"
       inkscape:vp_z="32 : 16 : 1"
       inkscape:persp3d-origin="16 : 10.666667 : 1"
       id="perspective4904" />
    <inkscape:perspective
       sodipodi:type="inkscape:persp3d"
       inkscape:vp_x="0 : 6 : 1"
       inkscape:vp_y="0 : 1000 : 0"
       inkscape:vp_z="12 : 6 : 1"
       inkscape:persp3d-origin="6 : 4 : 1"
       id="perspective4668" />
    <inkscape:perspective
       sodipodi:type="inkscape:persp3d"
       inkscape:vp_x="0 : 526.18109 : 1"
       inkscape:vp_y="0 : 1000 : 0"
       inkscape:vp_z="744.09448 : 526.18109 : 1"
       inkscape:persp3d-origin="372.04724 : 350.78739 : 1"
       id="perspective4471" />
    <symbol
       id="symbol-university"
       viewBox="244.5 110 489 219.9">
      <path
         d="M79,43l57,119c0,0,21-96,104-96s124,106,124,106l43-133l82-17L0,17L79,43z"
         id="path4460" />
      <path
         fill="none"
         stroke="#000000"
         stroke-width="20"
         d="M94,176l-21,39"
         id="path4462" />
      <path
         d="M300,19c0,10.5-22.6,19-50.5,19S199,29.5,199,19s22.6-19,50.5-19S300,8.5,300,19z"
         id="path4464" />
      <path
         ill="none"
         stroke="#000000"
         stroke-width="20"
         d="M112,216l-16-38L64,88c0,0-9-8-4-35s16-24,16-24"
         id="path4466" />
    </symbol>
    <inkscape:perspective
       sodipodi:type="inkscape:persp3d"
       inkscape:vp_x="0 : 30 : 1"
       inkscape:vp_y="0 : 1000 : 0"
       inkscape:vp_z="60 : 30 : 1"
       inkscape:persp3d-origin="30 : 20 : 1"
       id="perspective3452" />
    <inkscape:perspective
       id="perspective9479"
       inkscape:persp3d-origin="290 : 193.33333 : 1"
       inkscape:vp_z="580 : 290 : 1"
       inkscape:vp_y="0 : 1000 : 0"
       inkscape:vp_x="0 : 290 : 1"
       sodipodi:type="inkscape:persp3d" />
  </defs>
  <g
     id="g1327">
    <path
       d="M 66.275,1.768 C 24.94,1.768 1.704,23.139 1.704,66.804 L 1.704,516.927 C 1.704,557.771 22.599,579.156 63.896,579.156 L 515.92,579.156 C 557.227,579.156 578.149,558.841 578.149,516.927 L 578.149,66.804 C 578.149,24.203 557.227,1.768 514.628,1.768 C 514.624,1.768 66.133,1.625 66.275,1.768 z "
       style="fill:#111;stroke:#eee;stroke-width:3.40799999"
       id="path1329" />
  </g>
  <path
     style="font-size:144px;font-style:normal;font-variant:normal;font-weight:normal;font-stretch:normal;text-align:start;line-height:125%;writing-mode:lr-tb;text-anchor:start;fill:#ffffff;fill-opacity:1;stroke:none;font-family:Arial Black;-inkscape-font-specification:Arial Black"
     d="m 20.798111,209.9188 99.932659,0 c 16.65531,1.7e-4 29.44148,4.12474 38.35859,12.37373 8.91679,8.24932 13.37525,18.46254 13.37541,30.63973 -1.6e-4,10.21337 -3.18199,18.97318 -9.54545,26.27947 -4.24257,4.87101 -10.44909,8.72062 -18.61954,11.54882 12.41288,2.98549 21.54588,8.11174 27.399,15.37877 5.8528,7.2672 8.77929,16.40018 8.77947,27.39901 -1.8e-4,8.95626 -2.08211,17.009 -6.24579,24.15823 -4.16404,7.14931 -9.85987,12.80586 -17.08755,16.96971 -4.47826,2.59261 -11.23471,4.47812 -20.26935,5.65657 -12.02032,1.57125 -19.99452,2.35689 -23.92255,2.35689 l -92.154899,0 0,-172.76093 z m 53.855232,67.76093 23.215476,0 c 8.327621,1.1e-4 14.121661,-1.43367 17.382151,-4.30134 3.26028,-2.86744 4.89047,-7.01167 4.89057,-12.43266 -1e-4,-5.02794 -1.63029,-8.95608 -4.89057,-11.7845 -3.26049,-2.82816 -8.93669,-4.2423 -17.02862,-4.24243 l -23.569007,0 0,32.76093 z m 0,67.87879 27.222197,0 c 9.19182,4e-5 15.6733,-1.63014 19.44445,-4.89058 3.77092,-3.26031 5.65644,-7.64023 5.65657,-13.13972 -1.3e-4,-5.10656 -1.86602,-9.2115 -5.59764,-12.31482 -3.73188,-3.10318 -10.27228,-4.6548 -19.62121,-4.65487 l -27.104367,0 0,34.99999 z m 261.685917,-46.90235 37.47476,8.36701 c -1.96428,6.91365 -3.84981,12.45236 -5.65657,16.61616 -1.80715,4.16391 -4.36045,9.07411 -7.65993,14.73063 l 18.0303,12.37374 c 2.19958,1.41417 5.02786,3.10327 8.48484,5.06734 l -25.80807,29.69697 c -4.71398,-2.51402 -9.60456,-5.42086 -14.67174,-8.72053 -5.06749,-3.29966 -9.60453,-6.12794 -13.61109,-8.48486 -8.32786,5.49945 -16.65558,9.50617 -24.98317,12.02021 -11.54893,3.45678 -24.66901,5.18518 -39.36025,5.18518 -23.01916,0 -40.14597,-4.79236 -51.38048,-14.37709 -11.2346,-9.58473 -16.85188,-21.21212 -16.85185,-34.88217 -3e-5,-9.82038 3.29963,-19.11048 9.89897,-27.87036 6.5993,-8.75974 17.40175,-16.16434 32.40743,-22.21382 -6.28514,-7.62054 -10.60612,-14.23949 -12.96299,-19.85689 -2.35693,-5.61716 -3.53539,-11.33266 -3.53534,-17.14646 -5e-5,-12.25577 4.67447,-22.35115 14.02355,-30.2862 9.349,-7.93475 23.52968,-11.90219 42.54211,-11.90237 19.40503,1.8e-4 33.66428,3.77123 42.77777,11.31313 9.1132,7.54226 13.66988,16.57704 13.67003,27.1044 -1.5e-4,5.89237 -1.39465,11.54893 -4.1835,16.96968 -2.78914,5.42099 -6.14773,9.82055 -10.07576,13.19866 -3.92829,3.37832 -10.95972,8.40637 -21.09427,15.08418 8.40616,8.40636 17.16598,16.22342 26.27947,23.45118 2.43532,-4.87087 4.51723,-10.01676 6.24578,-15.43772 l 0,0 z m -55.15151,-30.28618 c 6.20641,-3.37813 10.99878,-7.05096 14.37711,-11.01853 3.3781,-3.96732 5.06723,-7.71873 5.06735,-11.25423 -1.2e-4,-3.69232 -1.41427,-6.81522 -4.24243,-9.36868 -2.8284,-2.55315 -6.71729,-3.82981 -11.66667,-3.82996 -4.87104,1.5e-4 -8.83848,1.4143 -11.90236,4.24242 -3.06406,2.82843 -4.59605,6.16736 -4.59597,10.01685 -8e-5,4.87104 4.32091,11.94175 12.96297,21.21213 l 0,0 z m -17.08754,41.95284 c -6.5994,4.63531 -10.97931,8.60277 -13.13972,11.90236 -2.16056,3.29971 -3.24083,6.79579 -3.24076,10.48821 -7e-5,5.73518 2.4747,10.84179 7.42424,15.31988 4.94943,4.47814 11.39162,6.71717 19.3266,6.71716 8.56332,10e-6 18.18734,-3.3389 28.87206,-10.01682 -10.21334,-7.85631 -23.29415,-19.32655 -39.24242,-34.41079 l 0,0 z m 140.19097,-100.40403 99.93267,0 c 16.65531,1.7e-4 29.44149,4.12474 38.35858,12.37373 8.91679,8.24932 13.37527,18.46254 13.37543,30.63973 -1.6e-4,10.21337 -3.18199,18.97318 -9.54545,26.27947 -4.24258,4.87101 -10.44909,8.72062 -18.61953,11.54882 12.41286,2.98549 21.54586,8.11174 27.39899,15.37877 5.85279,7.2672 8.77929,16.40018 8.77945,27.39901 -1.6e-4,8.95626 -2.08209,17.009 -6.24577,24.15823 -4.16405,7.14931 -9.85988,12.80586 -17.08756,16.96971 -4.47827,2.59261 -11.23469,4.47812 -20.26934,5.65657 -12.02033,1.57125 -19.99452,2.35689 -23.92257,2.35689 l -92.1549,0 0,-172.76093 z m 53.85524,67.76093 23.21548,0 c 8.32763,1.1e-4 14.12166,-1.43367 17.38216,-4.30134 3.26027,-2.86744 4.89045,-7.01167 4.89057,-12.43266 -1.2e-4,-5.02794 -1.6303,-8.95608 -4.89057,-11.7845 -3.2605,-2.82816 -8.93669,-4.2423 -17.02862,-4.24243 l -23.56902,0 0,32.76093 z m 0,67.87879 27.22221,0 c 9.19182,4e-5 15.6733,-1.63014 19.44446,-4.89058 3.7709,-3.26031 5.65642,-7.64023 5.65656,-13.13972 -1.4e-4,-5.10656 -1.86602,-9.2115 -5.59765,-12.31482 -3.73188,-3.10318 -10.27226,-4.6548 -19.62121,-4.65487 l -27.10437,0 0,34.99999 z"
     id="text9544"
     sodipodi:nodetypes="ccssscssscccccccssscccccssscccccsccccsccsssscsssssssscccccsssssscccsssscccccssscssscccccccssscccccsssccc" />
</svg>

<svg width="580" height="580" viewBox="0 0 580 580" fill="none" xmlns="http://www.w3.org/2000/svg">
<g clip-path="url(#clip0)">
<path d="M66.275 1.76799C24.94 1.76799 1.70398 23.139 1.70398 66.804V516.927C1.70398 557.771 22.599 579.156 63.896 579.156H515.92C557.227 579.156 578.149 558.841 578.149 516.927V66.804C578.149 24.203 557.227 1.76799 514.628 1.76799C514.624 1.76799 66.133 1.62499 66.275 1.76799Z" fill="#111111" stroke="#EEEEEE" stroke-width="3.408"/>
<path d="M20.7981 209.919H120.731C137.386 209.919 150.172 214.044 159.089 222.293C168.006 230.542 172.465 240.755 172.465 252.932C172.465 263.146 169.283 271.905 162.919 279.212C158.677 284.083 152.47 287.932 144.3 290.761C156.713 293.746 165.846 298.872 171.699 306.139C177.552 313.407 180.478 322.54 180.478 333.538C180.478 342.495 178.396 350.547 174.232 357.697C170.068 364.846 164.373 370.502 157.145 374.666C152.667 377.259 145.91 379.144 136.876 380.323C124.855 381.894 116.881 382.68 112.953 382.68H20.7981V209.919V209.919ZM74.6533 277.68H97.8688C106.196 277.68 111.99 276.246 115.251 273.378C118.511 270.511 120.141 266.367 120.142 260.946C120.141 255.918 118.511 251.99 115.251 249.161C111.99 246.333 106.314 244.919 98.2223 244.919H74.6533V277.68V277.68ZM74.6533 345.559H101.876C111.067 345.559 117.549 343.928 121.32 340.668C125.091 337.408 126.976 333.028 126.977 327.528C126.976 322.422 125.111 318.317 121.379 315.213C117.647 312.11 111.107 310.559 101.758 310.559H74.6533V345.559V345.559ZM336.339 298.656L373.814 307.023C371.85 313.937 369.964 319.476 368.157 323.639C366.35 327.803 363.797 332.713 360.497 338.37L378.528 350.744C380.727 352.158 383.556 353.847 387.013 355.811L361.205 385.508C356.491 382.994 351.6 380.087 346.533 376.787C341.465 373.488 336.928 370.66 332.922 368.303C324.594 373.802 316.266 377.809 307.939 380.323C296.39 383.78 283.27 385.508 268.578 385.508C245.559 385.508 228.432 380.716 217.198 371.131C205.963 361.546 200.346 349.919 200.346 336.249C200.346 326.428 203.646 317.138 210.245 308.378C216.844 299.619 227.647 292.214 242.652 286.165C236.367 278.544 232.046 271.925 229.689 266.308C227.332 260.691 226.154 254.975 226.154 249.161C226.154 236.905 230.829 226.81 240.178 218.875C249.527 210.94 263.707 206.973 282.72 206.973C302.125 206.973 316.384 210.744 325.497 218.286C334.611 225.828 339.167 234.863 339.168 245.39C339.167 251.283 337.773 256.939 334.984 262.36C332.195 267.781 328.836 272.18 324.908 275.559C320.98 278.937 313.949 283.965 303.814 290.643C312.22 299.049 320.98 306.866 330.093 314.094C332.529 309.223 334.611 304.077 336.339 298.656V298.656ZM281.188 268.37C287.394 264.992 292.186 261.319 295.565 257.351C298.943 253.384 300.632 249.633 300.632 246.097C300.632 242.405 299.218 239.282 296.39 236.729C293.561 234.175 289.672 232.899 284.723 232.899C279.852 232.899 275.885 234.313 272.821 237.141C269.757 239.969 268.225 243.308 268.225 247.158C268.225 252.029 272.546 259.1 281.188 268.37V268.37ZM264.1 310.323C257.501 314.958 253.121 318.926 250.96 322.225C248.8 325.525 247.72 329.021 247.72 332.713C247.72 338.449 250.194 343.555 255.144 348.033C260.093 352.511 266.536 354.75 274.471 354.75C283.034 354.75 292.658 351.412 303.343 344.734C293.129 336.877 280.048 325.407 264.1 310.323V310.323ZM404.291 209.919H504.224C520.879 209.919 533.665 214.044 542.582 222.293C551.499 230.542 555.958 240.755 555.958 252.932C555.958 263.146 552.776 271.905 546.412 279.212C542.17 284.083 535.963 287.932 527.793 290.761C540.206 293.746 549.339 298.872 555.192 306.139C561.045 313.407 563.971 322.54 563.971 333.538C563.971 342.495 561.889 350.547 557.726 357.697C553.561 364.846 547.866 370.502 540.638 374.666C536.16 377.259 529.403 379.144 520.369 380.323C508.348 381.894 500.374 382.68 496.446 382.68H404.291V209.919V209.919ZM458.146 277.68H481.362C489.69 277.68 495.484 276.246 498.744 273.378C502.004 270.511 503.635 266.367 503.635 260.946C503.635 255.918 502.004 251.99 498.744 249.161C495.484 246.333 489.807 244.919 481.715 244.919H458.146V277.68ZM458.146 345.559H485.369C494.56 345.559 501.042 343.928 504.813 340.668C508.584 337.408 510.469 333.028 510.47 327.528C510.469 322.422 508.604 318.317 504.872 315.213C501.14 312.11 494.6 310.559 485.251 310.559H458.146V345.559Z" fill="white"/>
</g>
<defs>
<clipPath id="clip0">
<rect width="580" height="580" fill="white"/>
</clipPath>
</defs>
</svg>
